X: 16401
T: Gypsy Meghan
R: reel
M: 4/4
K: Dmajor
|:c2 AB cFAB|c/e/c Ac BEGB|c2 AB cFAB|cdec BEGE:|
|:cFAF cFAB|c2 FA BEGB|cFAF cFAB|cdec BEGE:|
|:c2 Af FcAB|cAAf eB G/A/B|c2 Af FcAB|cfec BEGE:|
|:cFfF eF G/A/B|cFfF eE G/F/E|cFfF eFdF|cFBF AEGE:|

